src/assets/images/logos/html5.svg

<svg enable-background="new 0 0 2000 2000" viewBox="0 0 2000 2000" xmlns="http://www.w3.org/2000/svg"><path d="m352.7 1718.4-144.1-1616.4h1582.8l-144.3 1616.5-647.5 179.5z" fill="#fcd02c"/><path d="m1000 234.1v1526.6l523.6-145.1 123.3-1381.5z" fill="#fff" opacity=".3"/><path d="m503.5 432.4 53.4 599.5h687.1l-23 257.1-221.3 59.9-220.8-59.8-14.7-165.1h-199l28.4 318.3 406.1 112.8 406.6-112.8 54.5-608.6h-722.6l-18.1-203.1h758.1.6l17.7-198.2z" fill="#fff"/><g fill="#ebebeb"><path d="m1000 432.4h-496.5l53.4 599.5h443.1v-198.2h-261.8l-18.1-203.1h279.9z"/><path d="m1000 1348.8-.3.1-220.8-59.8-14.7-165.1h-199l28.4 318.3 406.1 112.8.3-.1z"/></g></svg>

<?xml version="1.0" encoding="utf-8"?>
<!-- Generator: Adobe Illustrator 22.1.0, SVG Export Plug-In . SVG Version: 6.00 Build 0)  -->
<svg version="1.1" id="Calque_1" xmlns="http://www.w3.org/2000/svg" xmlns:xlink="http://www.w3.org/1999/xlink" x="0px" y="0px"
	 viewBox="0 0 2000 2000" style="enable-background:new 0 0 2000 2000;" xml:space="preserve">
<style type="text/css">
	.st0{fill:#FCD02C;}
	.st1{opacity:0.3;fill:#FFFFFF;enable-background:new    ;}
	.st2{fill:#1E1D1F;}
	.st3{opacity:0.1;}
	.st4{fill:#EBEBEB;}
</style>
<path class="st0" d="M352.7,1718.4L208.6,102h1582.8l-144.3,1616.5L999.6,1898L352.7,1718.4z"/>
<path class="st1" d="M1000,234.1v1526.6l523.6-145.1l123.3-1381.5L1000,234.1z"/>
<path class="st2" d="M503.5,432.4l53.4,599.5H1244l-23,257.1l-221.3,59.9l-220.8-59.8L764.2,1124h-199l28.4,318.3l406.1,112.8
	l406.6-112.8l54.5-608.6H738.2l-18.1-203.1h758.1h0.6l17.7-198.2L503.5,432.4z"/>
<g class="st3">
	<path class="st4" d="M1000,432.4H503.5l53.4,599.5H1000V833.7H738.2l-18.1-203.1H1000V432.4z"/>
	<path class="st4" d="M1000,1348.8l-0.3,0.1l-220.8-59.8L764.2,1124h-199l28.4,318.3l406.1,112.8l0.3-0.1L1000,1348.8z"/>
</g>
</svg>
